src/Assets/Icons/General/PrimaryNavbarComponent/flowIcon_selected.svg

<svg width="50" height="41" viewBox="0 0 50 41" fill="none" xmlns="http://www.w3.org/2000/svg">
<path d="M20.1194 15.9727C17.8283 15.9727 15.9722 17.8288 15.9722 20.1199C15.9722 22.4109 17.8283 24.2671 20.1194 24.2671C22.4104 24.2671 24.2666 22.4109 24.2666 20.1199C24.2666 17.8288 22.4104 15.9727 20.1194 15.9727Z" fill="#0000FF"/>
<path d="M39.3477 14.1785C36.8153 5.96756 29.1615 0 20.1223 0C9.00943 0 0 9.00645 0 20.1163C0 31.2261 9.00645 40.2385 20.1223 40.2385H36.2403C43.5396 40.2385 49.4565 34.3216 49.4565 27.0223C49.4565 20.7956 45.1484 15.5699 39.3477 14.1756V14.1785ZM28.2945 28.0561L25.1394 30.3472C24.8594 30.5528 24.472 30.532 24.2158 30.2996L21.8949 28.22C21.3229 28.3451 20.73 28.4166 20.1193 28.4166C19.5085 28.4166 18.9156 28.3451 18.3436 28.22L16.0227 30.2996C15.7635 30.532 15.3792 30.5498 15.0991 30.3472L11.944 28.0561C11.664 27.8536 11.5627 27.4782 11.7027 27.1624L12.9659 24.3082C12.3731 23.2982 11.9828 22.1571 11.8636 20.9326L9.17031 19.3685C8.8694 19.1927 8.73236 18.8352 8.83961 18.5045L10.0432 14.7952C10.1505 14.4645 10.4752 14.256 10.8179 14.2917L13.9253 14.6105C14.7148 13.7227 15.689 13.0047 16.7914 12.522L17.4439 9.4742C17.5154 9.13456 17.8163 8.89324 18.1648 8.89324H22.0648C22.4133 8.89324 22.7113 9.13456 22.7858 9.4742L23.4382 12.522C24.5406 13.0047 25.5148 13.7227 26.3043 14.6105L29.4117 14.2917C29.7573 14.256 30.0791 14.4675 30.1864 14.7952L31.39 18.5045C31.4973 18.8352 31.3602 19.1957 31.0593 19.3685L28.366 20.9326C28.2468 22.1571 27.8565 23.2982 27.2637 24.3082L28.5269 27.1624C28.6669 27.4782 28.5686 27.8536 28.2856 28.0561H28.2945ZM43.051 28.3302L41.1264 28.8457C40.8493 29.5816 40.4173 30.2191 39.881 30.7435L40.1849 32.7158C40.2177 32.9363 40.0955 33.1478 39.887 33.2282L37.5572 34.1161C37.3486 34.1965 37.1162 34.1161 36.9941 33.9313L35.9096 32.26C35.5342 32.2421 35.1588 32.1855 34.7804 32.0842C34.4051 31.9829 34.0505 31.8399 33.7168 31.6671L31.9382 32.5638C31.7386 32.6651 31.4973 32.6115 31.3602 32.4387L29.7961 30.4962C29.656 30.3234 29.656 30.0761 29.7961 29.9033L31.0533 28.3511C30.8567 27.6301 30.806 26.8585 30.9371 26.0838L29.5339 24.6687C29.379 24.5108 29.3521 24.2665 29.4743 24.0788L30.8388 21.9903C30.961 21.8056 31.1934 21.7281 31.4019 21.8085L33.267 22.5266C33.9016 22.1094 34.6225 21.8294 35.3852 21.7162L36.2969 19.9435C36.3982 19.7469 36.6246 19.6456 36.8391 19.7051L39.2464 20.3576C39.4609 20.4142 39.6039 20.6168 39.595 20.8373L39.4907 22.8275C40.0896 23.3101 40.5722 23.9179 40.9119 24.5972L42.8842 24.9189C43.1017 24.9547 43.2685 25.1394 43.2774 25.3599L43.4026 27.8506C43.4145 28.071 43.2685 28.2707 43.054 28.3302H43.051Z" fill="#0000FF"/>
<path d="M36.8601 24.4034C35.445 24.022 33.9881 24.8562 33.6067 26.2714C33.2254 27.6866 34.0596 29.1435 35.4748 29.5248C36.8899 29.9062 38.3468 29.072 38.7282 27.6568C39.1095 26.2416 38.2753 24.7877 36.8601 24.4034Z" fill="#0000FF"/>
</svg>

<svg xmlns="http://www.w3.org/2000/svg" width="50" height="41" fill="none"><path fill="#00F" d="M20.12 15.973a4.146 4.146 0 1 0 4.147 4.147 4.146 4.146 0 0 0-4.148-4.147"/><path fill="#00F" d="M39.348 14.179C36.815 5.967 29.162 0 20.122 0 9.01 0 0 9.006 0 20.116S9.006 40.24 20.122 40.24H36.24c7.3 0 13.216-5.917 13.216-13.217 0-6.226-4.308-11.452-10.108-12.846zM28.295 28.056l-3.156 2.291a.73.73 0 0 1-.923-.047l-2.321-2.08a8.3 8.3 0 0 1-1.776.197c-.61 0-1.203-.072-1.775-.197l-2.321 2.08a.736.736 0 0 1-.924.047l-3.155-2.29a.74.74 0 0 1-.241-.895l1.263-2.854a8.2 8.2 0 0 1-1.102-3.375L9.17 19.369a.735.735 0 0 1-.33-.864l1.203-3.71a.735.735 0 0 1 .775-.503l3.107.319a8.3 8.3 0 0 1 2.866-2.089l.653-3.048a.734.734 0 0 1 .72-.58h3.9c.35 0 .647.24.722.58l.652 3.048a8.3 8.3 0 0 1 2.866 2.089l3.108-.32a.736.736 0 0 1 .774.504l1.204 3.71a.734.734 0 0 1-.33.864l-2.694 1.564a8.2 8.2 0 0 1-1.102 3.375l1.263 2.854a.734.734 0 0 1-.241.894zm14.756.274-1.925.516a5.2 5.2 0 0 1-1.245 1.898l.304 1.972a.47.47 0 0 1-.298.512l-2.33.888a.47.47 0 0 1-.563-.185L35.91 32.26a5.3 5.3 0 0 1-1.13-.176 5.3 5.3 0 0 1-1.063-.417l-1.779.897a.47.47 0 0 1-.578-.125l-1.564-1.943a.47.47 0 0 1 0-.593l1.257-1.552a5.3 5.3 0 0 1-.116-2.267l-1.403-1.415a.47.47 0 0 1-.06-.59l1.365-2.089a.47.47 0 0 1 .563-.181l1.865.718a5.3 5.3 0 0 1 2.118-.81l.912-1.773a.47.47 0 0 1 .542-.239l2.407.653c.215.056.358.259.349.48l-.104 1.99a5.3 5.3 0 0 1 1.42 1.77l1.973.32a.47.47 0 0 1 .393.442l.126 2.49a.474.474 0 0 1-.349.48z"/><path fill="#00F" d="M36.86 24.403a2.652 2.652 0 1 0-1.385 5.122 2.652 2.652 0 1 0 1.385-5.122"/></svg>
